!!!!SEGMENT: pl-wtm--r-1447--001_stefani-jozef--spiewki-z-obrazku-dramatycznego-floryna-no-1.krn
!!!cenid: 18xx:2462
!!!COM: Stefani, Józef
!!!COM-rismID: pe30024097
!!!CDT: 1800/04/16-1876/03/19
!!!CNT: Polish
!!!GTL: Śpiewki z Obrazku Dramatycznego Floryna
!!!OTL: No. 1
!!!PDT:
!!!AGN: Secular
!!!SMS-siglum: PL-Wtm
!!!SMS-shelfmark: R 1447
!!!SMS-shelfwork: 001 G
!!!SMS-variant:
!!!SMS-altvar:
!!!NIFC-rismSourceID: 1001116468
!!!NIFC-islandoraID: pl-wtm:25740
!!!URL-pdf-islandora: https://repozytorium.nifc.pl/islandora/object/pl-wtm%3A25740/datastream/PDF/view
!!!URL-scan: https://polish.musicsources.pl/pl/lokalizacje/galeria/rekopisy/6263 @EN{Scan on Polish Music Herritage in Open Access Website} @PL{Skany w portalu Dziedzictwo Muzyki Polskiej w otwartym dostępie}
!!!ONB-nifc: UWAGA: podział na pięć numerów (No. 1 – No. 5)
!!!OMD: Allegretto.
!!!AIN: 2 empty
!!!key:
**kern	**kern	**dynam	**kern	**text	**text	**dynam
*part2	*part2	*part2	*part1	*part1	*part1	*part1
*staff3	*staff2	*	*staff1	*staff1	*staff1	*
*Iempty	*Ipiano	*	*Iempty	*	*	*
*	*I"Piano	*	*I"Floryna	*	*	*
*	*I'pf	*	*I'V	*	*	*
*clefF4	*clefG2	*	*clefG2	*	*	*
*k[b-e-]	*k[b-e-]	*	*k[b-e-]	*	*	*
*B-:	*B-:	*	*B-:	*	*	*
*M2/4	*M2/4	*	*M2/4	*	*	*
=1	=1	=1	=1	=1	=1	=1
!!LO:TX:a:t=P:problem:all\right:global
8BB-\L	8ffL 8f\	f	2r	.	.	.
8dJ 8B- 8F\	8ddd 8dd\	.	.	.	.	.
8BB-\L	8ccc 8cc\	.	.	.	.	.
8dJ 8B- 8F\	8bb-J 8b-\	.	.	.	.	.
=2	=2	=2	=2	=2	=2	=2
*^	*	*	*	*	*	*
4F/	8F\L	(4ccc 4cc\	.	2r	.	.	.
.	8e-J 8A\	.	.	.	.	.	.
4F/	8F\L	8ff\)	.	.	.	.	.
.	8e-J 8A\	8r	.	.	.	.	.
=3	=3	=3	=3	=3	=3	=3	=3
4F/	8F\L	8ffL 8f\	.	2r	.	.	.
.	8e-J 8A\	8eee- 8ee-\	.	.	.	.	.
4F/	8F\L	8ddd 8dd\	.	.	.	.	.
.	8e-J 8A\	8cccJ 8cc\	.	.	.	.	.
*v	*v	*	*	*	*	*	*
=4	=4	=4	=4	=4	=4	=4
8BB-\L	(4ddd 4dd\	.	2r	.	.	.
8dJ 8B- 8F\	.	.	.	.	.	.
8BB-\L	8bb-\)	.	.	.	.	.
8dJ 8B- 8F\	8r	.	.	.	.	.
=5	=5	=5	=5	=5	=5	=5
8E-\L	8cc\L	.	2r	.	.	.
8cJ 8G\	(32dd\LL	.	.	.	.	.
.	32cc\	.	.	.	.	.
.	32bn\	.	.	.	.	.
.	32cc\JJJ	.	.	.	.	.
8C\L	8dd\L)	.	.	.	.	.
8cJ 8G\	8ee-\J	.	.	.	.	.
=6	=6	=6	=6	=6	=6	=6
8F\L	(16gg\LL	.	2r	.	.	.
.	16ff\	.	.	.	.	.
8dJ 8B-\	16dd\	.	.	.	.	.
.	16b-\JJ)	.	.	.	.	.
8F\L	4f/	.	.	.	.	.
8dJ 8B-\	.	.	.	.	.	.
=7	=7	=7	=7	=7	=7	=7
*^	*	*	*	*	*	*
4F/	8F\L	(16g/LL	.	2r	.	.	.
.	.	16f/	.	.	.	.	.
.	8e-J 8A\	16en/	.	.	.	.	.
.	.	16f/JJ)	.	.	.	.	.
4F/	8F\L	8.dd\L	.	.	.	.	.
.	8e-J 8A\	.	.	.	.	.	.
.	.	16cc\Jk	.	.	.	.	.
*v	*v	*	*	*	*	*	*
=8	=8	=8	=8	=8	=8	=8
8d 8B-\	8b-\	.	2r	.	.	.
8r	8r	.	.	.	.	.
8c 8C\	8een 8cc 8b- 8g\	.	.	.	.	.
8r	8r	.	.	.	.	.
=9	=9	=9	=9	=9	=9	=9
8F 8FF/	8ff 8cc 8a\	.	2r	.	.	.
!LO:TUP:a:problem=klamra łukowa	!	!	!	!	!	!
24F\LL	8r	.	.	.	.	.
24G\	.	.	.	.	.	.
24F\JJ	.	.	.	.	.	.
!	!LO:TX:b:Bi:t=V&colon;S&colon;	!	!	!	!	!
8E-\L	4r	.	.	.	.	.
8C\J	.	.	.	.	.	.
!!LO:PB:g=original
=10	=10	=10	=10	=10	=10	=10
8BB-\L	8f/L	p	8f/	Niech	.	.
8FJ 8D\	8dd/	.	8dd\	mię	.	.
8BB-\L	8cc/	.	8cc\	Bóg	.	.
8FJ 8D\	8b-/J	.	8b-\	za-	.	.
=11	=11	=11	=11	=11	=11	=11
8FF\L	(4cc\	.	4cc\	-cho-	.	.
8FJ 8E- 8AA\	.	.	.	.	.	.
8FF\L	8f/)	.	8f/	-wa	.	.
8FJ 8E- 8AA\	8r	.	8r	.	.	.
=12	=12	=12	=12	=12	=12	=12
8FF\L	8f/L	.	8f/	Być	.	.
8FJ 8E- 8AA\	8ee-/	.	8ee-\	w li-	.	.
8FF\L	8dd/	.	8dd\	-czbie	.	.
8FJ 8E- 8AA\	8cc/J	.	8cc\	cze-	.	.
=13	=13	=13	=13	=13	=13	=13
8BB-\L	4dd\	.	4dd\	-czo-	.	.
8FJ 8D\	.	.	.	.	.	.
8BB-\L	8b-\	.	8b-\	-tek	.	.
8FJ 8D\	8r	.	8r	.	.	.
!!LO:LB:g=original
=14	=14	=14	=14	=14	=14	=14
8BB-\L	8f/L	.	8f/	gdzie	.	.
8FJ 8D\	8dd/	.	8dd\	wie-	.	.
8BB-\L	8cc/	.	8cc\	-czna	.	.
8FJ 8D\	8b-/J	.	8b-\	o-	.	.
=15	=15	=15	=15	=15	=15	=15
8FF\L	4cc\	.	4cc\	-bmo-	.	.
8FJ 8E- 8AA\	.	.	.	.	.	.
8FF\L	8f/	.	8f/	-wa	.	.
8FJ 8E- 8AA\	8r	.	8r	.	.	.
=16	=16	=16	=16	=16	=16	=16
!	!LO:TX:t=P:problem=mixed beam	!	!	!	!	!
8FF\L	8f/L	.	8f/	I	.	.
8FJ 8E- 8AA\	8ee-\J	.	8ee-\	zbiór	.	.
8FF\L	8.cc\L	.	8.cc\	wszel-	.	.
8FJ 8E- 8AA\	.	.	.	.	.	.
.	16ff\Jk	.	16ff\	-kich	.	.
=17	=17	=17	=17	=17	=17	=17
*^	*	*	*	*	*	*
4BB-/	8BB-\L	8ff\L	.	8ff\	plo-	.	.
.	8FJ 8D\	8b-\J	.	8b-\	-tek	.	.
!	!	!	!LO:HP:a	!	!	!	!
4ryy	8AL 8AA\	8f#XL 8d 8c/	<	4r	.	.	.
.	8GJ 8GG\	8gJ 8d 8B-/	[[	.	.	.	.
!!LO:LB:g=original
*v	*v	*	*	*	*	*	*
=18	=18	=18	=18	=18	=18	=18
8F#X 8FF#X\	8r	p	8dd\	Ja	.	.
8r	8a 8d 8c/	.	8dd\	choć	.	.
8F#\	8r	.	8ee-\	wi-	.	.
8r	8a 8d 8c/	.	8dd\	-dzę	.	.
=19	=19	=19	=19	=19	=19	=19
8G\	8r	.	4gg\	co	.	.
8r	8g 8d 8B-/	.	.	.	.	.
8GG/	8r	.	4r	.	.	.
8r	8g 8d 8B-/	.	.	.	.	.
=20	=20	=20	=20	=20	=20	=20
8D\	8r	.	8dd\	Po-	.	.
8r	8f#X 8d 8c 8A/	.	8cc\	-znam	.	.
8D\	8rg	.	8b-\	na-	.	.
8r	8f# 8d 8c 8A/	.	8a\	-wet	.	.
=21	=21	=21	=21	=21	=21	=21
8G\	8r	.	4b-\	nos.	.	.
8r	8g 8d 8B-/	.	.	.	.	.
8G\	8r	.	4r	.	.	.
8r	8g 8d 8B-/	.	.	.	.	.
!!LO:LB:g=original
=22	=22	=22	=22	=22	=22	=22
8En\	8r	.	8cc\	Choś	.	.
8r	8g 8c 8B-/	.	8cc\	wiem	.	.
.	.	.	8qeen/	.	.	.
8E\	8r	.	8dd\	do-	.	.
8r	8g 8c 8B-/	.	8cc\	-brze	.	.
=23	=23	=23	=23	=23	=23	=23
8F\	8r	.	4ff\	kto	.	.
8r	8f 8c 8A/	.	.	.	.	.
8F\	8rg	.	4r	.	.	.
8r	8f 8c 8A/	.	.	.	.	.
=24	=24	=24	=24	=24	=24	=24
8C\	8r	.	8cc\	To	.	.
8r	8en 8c 8B- 8G/	.	8b-\	za-	.	.
8C\	8r	.	8a/	-prze-	.	.
8r	8e 8c 8B- 8G/	.	8g/	-czę	.	.
=25	=25	=25	=25	=25	=25	=25
8F\L	4f 4c 4A/	.	4f/	w głos	.	.
8E-X\	.	.	.	.	.	.
8D\	4r	.	4r	.	.	.
8C\J	.	.	.	.	.	.
!!LO:PB:g=original
=26	=26	=26	=26	=26	=26	=26
8BB-\L	8f/L	.	8f/	Czy	.	.
8FJ 8D\	8dd/	.	8dd\	mó-	.	.
8BB-\L	8cc/	.	8cc\	-wi-	.	.
8FJ 8D\	8b-/J	.	8b-\	-łam	.	.
=27	=27	=27	=27	=27	=27	=27
8FF\L	4cc\	.	4cc\	ko-	.	.
8FJ 8E- 8AA\	.	.	.	.	.	.
8FF\L	8f/	.	8f/	-mu	.	.
8FJ 8E- 8AA\	8r	.	8r	.	.	.
=28	=28	=28	=28	=28	=28	=28
8FF\L	8f/L	.	8f/	Że	.	.
8FJ 8E- 8AA\	8ee-/	.	8ee-\	Jaś	.	.
8FF\L	8dd/	.	8dd\	z mę-	.	.
8FJ 8E- 8AA\	8cc/J	.	8cc\	-ża	.	.
=29	=29	=29	=29	=29	=29	=29
8BB-\L	4b-/	.	4b-\	drwi	.	.
8FJ 8D\	.	.	.	.	.	.
8BB-\L	4r	.	4r	.	.	.
8FJ 8D\	.	.	.	.	.	.
!!LO:LB:g=original
=30	=30	=30	=30	=30	=30	=30
8BB-\L	8f/L	.	8f/	o-	.	.
8FJ 8D\	8dd/	.	8dd\	-knem	.	.
8BB-\L	8cc/	.	8cc\	u-	.	.
8FJ 8D\	8b-/J	.	8b-\	-ciekł	.	.
=31	=31	=31	=31	=31	=31	=31
8FF\L	4cc\	.	4cc\	z do-	.	.
8FJ 8E- 8AA\	.	.	.	.	.	.
8FF\L	8f/	.	8f/	-mu	.	.
8FJ 8E- 8AA\	8r	.	8r	.	.	.
=32	=32	=32	=32	=32	=32	=32
8FF\L	8f/L	.	8f/	Gdy	.	.
8FJ 8E- 8AA\	8ee-/	.	8ee-\	mąż	.	.
8FF\L	8dd/	.	8dd\	o-	.	.
8FJ 8E- 8AA\	8cc/J	.	8cc\	-twarł	.	.
=33	=33	=33	=33	=33	=33	=33
8F 8D 8BB-\	8b-/	.	4b-\	drzwi	.	.
8r	8r	.	.	.	.	.
(32qqF/LLL	(32qqf/LLL	f	.	.	.	.
32qqG/	32qqg/	.	.	.	.	.
32qqA/JJJ	32qqa/JJJ	.	.	.	.	.
4B-\)	4b-/)	.	4r	.	.	.
!!LO:LB:g=original
=34	=34	=34	=34	=34	=34	=34
8BB-\L	8ffL 8f\	.	2r	.	.	.
8dJ 8B- 8F\	8ddd 8dd\	.	.	.	.	.
8BB-\L	8ccc 8cc\	.	.	.	.	.
8dJ 8B- 8F\	8bb-J 8b-\	.	.	.	.	.
=35	=35	=35	=35	=35	=35	=35
*^	*	*	*	*	*	*
4F/	8F\L	(4ccc 4cc\	.	2r	.	.	.
.	8e-J 8A\	.	.	.	.	.	.
4F/	8F\L	8ff\)	.	.	.	.	.
.	8e-J 8A\	8r	.	.	.	.	.
=36	=36	=36	=36	=36	=36	=36	=36
4F/	8F\L	8ffL 8f\	.	2r	.	.	.
.	8e-J 8A\	8eee- 8ee-\	.	.	.	.	.
4F/	8F\L	8ddd 8dd\	.	.	.	.	.
.	8e-J 8A\	8cccJ 8cc\	.	.	.	.	.
*v	*v	*	*	*	*	*	*
=37	=37	=37	=37	=37	=37	=37
8BB-\L	(4b-\	.	2r	.	.	.
8dJ 8B- 8F\	.	.	.	.	.	.
8BB-/	8bb-\)	.	.	.	.	.
8r	8r	.	.	.	.	.
=38	=38	=38	=38	=38	=38	=38
8BB-\L	8ffL 8f\	.	2r	.	.	.
8dJ 8B- 8F\	8ddd 8dd\	.	.	.	.	.
8BB-\L	8ccc 8cc\	.	.	.	.	.
8dJ 8B- 8F\	8bb-J 8b-\	.	.	.	.	.
!!LO:LB:g=original
=39	=39	=39	=39	=39	=39	=39
*^	*	*	*	*	*	*
4F/	8F\L	(4ccc 4cc\	.	2r	.	.	.
.	8e-J 8A\	.	.	.	.	.	.
4F/	8F\L	8ff\)	.	.	.	.	.
.	8e-J 8A\	8r	.	.	.	.	.
=40	=40	=40	=40	=40	=40	=40	=40
4F/	8F\L	(16a\LL	.	2r	.	.	.
.	.	16b-\	.	.	.	.	.
.	8e-J 8A\	16cc\	.	.	.	.	.
.	.	16dd\JJ	.	.	.	.	.
4F/	8F\L	16ee-\LL	.	.	.	.	.
.	.	16ff\	.	.	.	.	.
.	8e-J 8A\	16gg\	.	.	.	.	.
.	.	16aa\JJ	.	.	.	.	.
*v	*v	*	*	*	*	*	*
=41	=41	=41	=41	=41	=41	=41
8d 8B-\	8bb-\)	.	2r	.	.	.
(8B-\L	(8fL 8d/	.	.	.	.	.
8A\	8f#X 8d 8c/	.	.	.	.	.
!	!LO:TX:b:Bi:t=V&colon;S&colon;	!	!	!	!	!
8G\J)	8gJ 8d 8B-/)	.	.	.	.	.
!!LO:PB:g=original
=42	=42	=42	=42	=42	=42	=42
8F#X\	8r	p	8dd\	Że	Ze	.
8r	8a 8d 8c/	.	8dd\	skro-	wśród	.
8F#\	8r	.	8ee-\	-mna	zrę-	.
8r	8a 8d 8c/	.	8dd\	bar-	-cznych	.
=43	=43	=43	=43	=43	=43	=43
8G\	8r	.	4gg\	-ba-	fan-	.
8r	8g 8d 8B-/	.	.	.	.	.
8GG/	8r	.	8dd\	-ra,	-tów	.
8r	8g 8d 8B-/	.	8r	.	.	.
=44	=44	=44	=44	=44	=44	=44
8D\	8r	.	8dd\	ma	Zna-	.
8r	8f#X 8d 8c 8A/	.	8cc\	Ko-	-ny	.
8D\	8rg	.	8b-\	-chan-	Te-	.
8r	8f# 8d 8c 8A/	.	8a\	-ków	-kli	.
=45	=45	=45	=45	=45	=45	=45
8G\	8r	.	4b-\	trzech	wdzięk	.
8r	8g 8d 8B-/	.	.	.	.	.
8G\	8r	.	4r	.	.	.
8r	8g 8d 8B-/	.	.	.	.	.
!!LO:LB:g=original
=46	=46	=46	=46	=46	=46	=46
8En\	8r	.	8cc\	Że	Ma	.
8r	8g 8c 8B-/	.	8cc\	Klo-	sła-	.
.	.	.	(8qeen/	.	.	.
8E\	8r	.	8dd\)	-cia	-bość	.
8r	8g 8c 8B-/	.	8cc\	choć	bry-	.
=47	=47	=47	=47	=47	=47	=47
8F\	8r	.	4ff\	sta-	-lan-	.
8r	8f 8c 8A/	.	.	.	.	.
8F\	8rg	.	8cc\	-ra	-tów	.
8r	8f 8c 8A/	.	8r	.	.	.
=48	=48	=48	=48	=48	=48	=48
8C\	8r	.	8cc\	Je-	Lu-	.
8r	8en 8c 8B- 8G/	.	8b-\	-szcze	-bi	.
8C\	8r	.	8a/	lu-	zło-	.
8r	8e 8c 8B- 8G/	.	8g/	-bi	-ta	.
=49	=49	=49	=49	=49	=49	=49
8F\L	4f 4c 4A/	.	4f/	grzech	dźwięk	.
8E-X\	.	.	.	.	.	.
8D\	4r	.	4r	.	.	.
8C\J	.	.	.	.	.	.
!!LO:LB:g=original
=50	=50	=50	=50	=50	=50	=50
8BB-\L	8f/L	.	8f/	Ze	O	.
8FJ 8D\	8dd/	.	8dd\	u	skrom-	.
8BB-\L	8cc/	.	8cc\	Pan-	-nej	.
8FJ 8D\	8b-/J	.	8b-\	-ny	Mar-	.
=51	=51	=51	=51	=51	=51	=51
8FF\L	4cc\	.	4cc\	Flo-	-cel-	.
8FJ 8E- 8AA\	.	.	.	.	.	.
8FF\L	8f/	.	8f/	-ry	-ce	.
8FJ 8E- 8AA\	8r	.	8r	.	.	.
=52	=52	=52	=52	=52	=52	=52
8FF\L	8f/L	.	8f/	Znać	Bie-	.
8FJ 8E- 8AA\	8ee-/	.	8ee-\	im	-ga	.
8FF\L	8dd/	.	8dd\	do-	tak-	.
8FJ 8E- 8AA\	8cc/J	.	8cc\	-brze	-że	.
=53	=53	=53	=53	=53	=53	=53
8BB-\L	4b-/	.	4b-\	garb	wieść	.
8FJ 8D\	.	.	.	.	.	.
8BB-\L	4r	.	4r	.	.	.
8FJ 8D\	.	.	.	.	.	.
!!LO:LB:g=original
=54	=54	=54	=54	=54	=54	=54
8BB-\L	8f/L	.	8f/	Że	Przy	.
8FJ 8D\	8dd/	.	8dd\	Mar-	peł-	.
8BB-\L	8cc/	.	8cc\	-ty	-nej	.
8FJ 8D\	8b-/J	.	8b-\	ko-	bu-	.
=55	=55	=55	=55	=55	=55	=55
8FF\L	4cc\	.	4cc\	-lo-	-tel-	.
8FJ 8E- 8AA\	.	.	.	.	.	.
8FF\L	8f/	.	8f/	-ry	-ce	.
8FJ 8E- 8AA\	8r	.	8r	.	.	.
=56	=56	=56	=56	=56	=56	=56
8FF\L	8f/L	.	8f/	To	Lu-	.
8FJ 8E- 8AA\	8ee-/	.	8ee-\	sklep	-bi	.
8FF\L	8dd/	.	8dd\	ca-	Kie-	.
8FJ 8E- 8AA\	8cc/J	.	8cc\	-ły	-lich	.
=57	=57	=57	=57	=57	=57	=57
8F 8D 8BB-\	8b-/	.	4b-\	farb.	wznieść	.
8r	8r	.	.	.	.	.
(32qqF/LLL	(32qqf/LLL	f	.	.	.	.
32qqG/	32qqg/	.	.	.	.	.
32qqA/JJJ	32qqa/JJJ	.	.	.	.	.
4B-\)	4b-/)	.	4r	.	.	.
!!LO:PB:g=original
=58	=58	=58	=58	=58	=58	=58
8BB-\L	8ffL 8f\	.	2r	.	.	.
8dJ 8B- 8F\	8ddd 8dd\	.	.	.	.	.
8BB-\L	8ccc 8cc\	.	.	.	.	.
8dJ 8B- 8F\	8bb-J 8b-\	.	.	.	.	.
=59	=59	=59	=59	=59	=59	=59
*^	*	*	*	*	*	*
4F/	8F\L	(4ccc 4cc\	.	2r	.	.	.
.	8e-J 8A\	.	.	.	.	.	.
4F/	8F\L	8ff\)	.	.	.	.	.
.	8e-J 8A\	8r	.	.	.	.	.
=60	=60	=60	=60	=60	=60	=60	=60
4F/	8F\L	8ffL 8f\	.	2r	.	.	.
.	8e-J 8A\	8eee- 8ee-\	.	.	.	.	.
4F/	8F\L	8ddd 8dd\	.	.	.	.	.
.	8e-J 8A\	8cccJ 8cc\	.	.	.	.	.
*v	*v	*	*	*	*	*	*
=61	=61	=61	=61	=61	=61	=61
8BB-\L	(4b-\	.	2r	.	.	.
8dJ 8B- 8F\	.	.	.	.	.	.
8BB-/	8bb-\)	.	.	.	.	.
8r	8r	.	.	.	.	.
=62	=62	=62	=62	=62	=62	=62
8BB-\L	8ffL 8f\	.	2r	.	.	.
8dJ 8B- 8F\	8ddd 8dd\	.	.	.	.	.
8BB-\L	8ccc 8cc\	.	.	.	.	.
8dJ 8B- 8F\	8bb-J 8b-\	.	.	.	.	.
=63	=63	=63	=63	=63	=63	=63
*^	*	*	*	*	*	*
4F/	8F\L	(4ccc 4cc\	.	2r	.	.	.
.	8e-J 8A\	.	.	.	.	.	.
4F/	8F\L	8ff\)	.	.	.	.	.
.	8e-J 8A\	8r	.	.	.	.	.
!!LO:LB:g=original
=64	=64	=64	=64	=64	=64	=64	=64
4F/	8F\L	(16a\LL	.	2r	.	.	.
.	.	16b-\	.	.	.	.	.
.	8e-J 8A\	16cc\	.	.	.	.	.
.	.	16dd\JJ	.	.	.	.	.
4F/	8F\L	16ee-\LL	.	.	.	.	.
.	.	16ff\	.	.	.	.	.
.	8e-J 8A\	16gg\	.	.	.	.	.
.	.	16aa\JJ	.	.	.	.	.
*v	*v	*	*	*	*	*	*
=65	=65	=65	=65	=65	=65	=65
8d 8B-\	8bb-\)	.	2r	.	.	.
8r	8r	.	.	.	.	.
8B- 8BB-\	8bb- 8ff 8dd\	.	.	.	.	.
8r	8r	.	.	.	.	.
=66	=66	=66	=66	=66	=66	=66
*^	*	*	*	*	*	*
4En/	8E\L	8cc\L	p	8cc\	Dłu-	.	.
.	8cJ 8B- 8G\	8cc\J	.	8cc\	-gą	.	.
.	.	(8qeen/	.	(8qeen/	.	.	.
4ryy	8C\L	8dd\L)	.	8dd\)	su-	.	.
.	8cJ 8B- 8G\	8cc'\J	.	8cc\	-knie	.	.
*v	*v	*	*	*	*	*	*
=67	=67	=67	=67	=67	=67	=67
8F\L	(4ff\	.	4ff\	no-	.	.
8cJ 8A\	.	.	.	.	.	.
8C\L	8a/)	.	8a/	-si	.	.
8cJ 8A 8F\	8r	.	8r	.	.	.
=68	=68	=68	=68	=68	=68	=68
*^	*	*	*	*	*	*
4En/	8E\L	8cccL 8cc\	.	8cc\	Ró-	.	.
.	8cJ 8B- 8G\	8bb- 8b-\	.	8b-\	-ża	.	.
4ryy	8C\L	8gg 8g\	.	8g/	dla	.	.
.	8cJ 8B- 8G\	8dddJ 8dd\	.	8dd\	swych	.	.
!!LO:LB:g=original
*v	*v	*	*	*	*	*	*
=69	=69	=69	=69	=69	=69	=69
8F\L	4ccc 4cc\	.	4cc\	nóg	.	.
8cJ 8A\	.	.	.	.	.	.
8C\L	4r	.	4r	.	.	.
8cJ 8A 8F\	.	.	.	.	.	.
=70	=70	=70	=70	=70	=70	=70
8En\L	8r	.	8cc\	A	.	.
8cJ 8B- 8G\	8cc'\L	.	8cc\	przy	.	.
.	(8qeen/	.	(8qeen/	.	.	.
8C\L	8dd\)	.	8dd\)	Kształ-	.	.
8cJ 8B- 8G\	8cc'\J	.	8cc\	-cie	.	.
=71	=71	=71	=71	=71	=71	=71
*^	*	*	*	*	*	*
4.F/	8F\L	(4ff\	.	4ff\	pro-	.	.
.	8c 8A\	.	.	.	.	.	.
.	8cJ 8A\	8a/)	.	8a/	-si	.	.
8r	8ryy	8r	.	16r	.	.	.
.	.	.	.	16a/	o	.	.
*v	*v	*	*	*	*	*	*
=72	=72	=72	=72	=72	=72	=72
4B- 4BBn\	4dd 4a-X 4f^/	.	8dd\	wa-	.	.
.	.	.	8dd\	-tę	.	.
4r	4r	.	4r	.	.	.
!!LO:LB:g=original
=73	=73	=73	=73	=73	=73	=73
4c 4B- 4En 4C\	(16cc\LL	f	4r	.	.	.
.	16dd\	.	.	.	.	.
.	16een\	.	.	.	.	.
.	16ff\JJ	.	.	.	.	.
4c 4B- 4G 4C\	16gg\LL	.	8.r	.	.	.
.	16aa\	.	.	.	.	.
.	16bb-\	.	.	.	.	.
.	16ccc\JJ)	.	16cc\	i	.	.
=74||	=74||	=74||	=74||	=74||	=74||	=74||
*k[b-e-]	*k[b-e-]	*	*k[b-e-]	*	*	*
*M4/4	*M4/4	*	*M4/4	*	*	*
*met(c)	*met(c)	*	*met(c)	*	*	*
4r	4r	.	4f/	róg	.	.
4F 4FF/	4ff 4cc 4a\	.	4r	.	.	.
!	!LO:TX:b:Bi:t=V&colon;S&colon;	!	!	!	!	!
4r;>	4r;>	.	4r;>	.	.	.
!!LO:PB:g=original
=||	=||	=||	=||	=||	=||	=||
!!!OMD: Moderato
*k[b-e-]	*k[b-e-]	*	*k[b-e-]	*	*	*
4r	4f/	p	4f/	Wiem	.	.
=75	=75	=75	=75	=75	=75	=75
8d\	8b- 8f/	.	8b-\	wiem	.	.
8r	8r	.	8r	.	.	.
8A\	8cc 8f/	.	8cc\	o	.	.
8r	8r	.	8r	.	.	.
8B-\	8dd 8b- 8f/	.	8dd\	wszy-	.	.
8r	8r	.	8r	.	.	.
8d\	8b- 8f/	.	8b-\	-stkiem	.	.
8r	8r	.	8r	.	.	.
=76	=76	=76	=76	=76	=76	=76
(4c\	(4ee- 4a 4f^/	.	4ee-\	wiem	.	.
8.B-\L)	8.ddL 8.b- 8.f/)	.	8.dd\	do-	.	.
16B-|>\Jk	16ddJk 16b- 16f/	.	16dd\	-sko-	.	.
(4A\	(4cc 4f^/	.	4cc\	-na-	.	.
8.G\L)	8.b-L 8.en 8.c/)	.	8.b-\	-le	.	.
16G\Jk	16b-|>Jk 16e 16c/	.	16b-\	Co	.	.
!!LO:LB:g=original
=77	=77	=77	=77	=77	=77	=77
[4F\	(4a 4f 4c/	.	4a/	któ-	.	.
8F] 8FF\	8b- 8f 8c 8A/)	.	8f/	-ra	.	.
8r	8r	.	8r	.	.	.
8d 8D\	8b-|>L 8f/	.	8b-\	ja-	.	.
!	!	!	!	!	!	!LO:HP:a
8r	(16b-/L	.	16b-\	-dła	.	<
.	16a/JJ	.	16a\	jak	.	.
8dL 8D\	8b-L 8f/)	.	8.b-\	się	.	.
8B-J 8BB-\	8ddJ 8b- 8f/	.	.	.	.	.
.	.	.	16dd\	ba-	.	[
=78	=78	=78	=78	=78	=78	=78
!	!	!	!	!	!	!LO:HP:a
[2F [2FF/	2ff 2a 2f/	.	2ff\	-wi-	.	>
8F] 8FF/]	8cc 8a 8f/	.	8cc\	-ła	.	]
8r	8r	.	8r	.	.	.
4r	4f/	.	4f/	Lecz	.	.
!!LO:LB:g=original
=79	=79	=79	=79	=79	=79	=79
8d\	8b- 8f/	.	8b-\	że	.	.
8r	8r	.	8r	.	.	.
8A\	8cc 8f/	.	8cc\	ja	.	.
8r	8r	.	8r	.	.	.
8B-\	8dd 8b- 8f/	.	8dd\	plo-	.	.
8r	8r	.	8r	.	.	.
8d\	8b- 8f/	.	8b-\	-tek	.	.
8r	8r	.	8r	.	.	.
=80	=80	=80	=80	=80	=80	=80
(4c\	(4ee- 4a 4f^/	.	4ee-\	ni-	.	.
8.B-\L)	8.ddL 8.b- 8.f/)	.	8.dd\	-gdy	.	.
16B-|>\Jk	16ddJk 16b- 16f/	.	16dd\	nie	.	.
(4A\	(4cc 4f^/	.	4cc\	chwa-	.	.
8.G\L)	8.b-L 8.en 8.c/)	.	8b-\	-le	.	.
.	.	.	8r	.	.	.
16G\Jk	16b-Jk 16e 16c/	.	.	.	.	.
!!LO:LB:g=original
=81	=81	=81	=81	=81	=81	=81
[4F\	4.a 4.f 4.c/	.	8.a/	Py-	.	.
.	.	.	16a/	-tam	.	.
8F] 8FF\	.	.	8a/	więc	.	.
8r	8r	.	8r	.	.	.
8d 8D\	8b- 8f/	.	8b-\	wszy-	.	.
8r	8r	.	8r	.	.	.
8B- 8BB-\	8dd 8b- 8f/	.	8dd\	-stkich	.	.
8r	8r	.	8r	.	.	.
=82	=82	=82	=82	=82	=82	=82
4G 4GG\	4b- 4en 4c/	.	4b-/	czym	.	.
4r	4r	.	8.a/	co	.	.
.	.	.	16b-/	mó-	.	.
4F 4FF\	4a 4f 4c/	.	4dd\	-wi-	.	.
4r	4r	.	8cc\	-ła	.	.
.	.	.	8r	.	.	.
!!LO:PB:g=original
=83	=83	=83	=83	=83	=83	=83
(2E-X 2EE-X\	2a [2f 2c^/	.	4a/	Py-	.	.
.	.	.	8.f/	-tam	.	.
.	.	.	16f/	więc	.	.
4D 4DD\)	4b- 4f] 4B-/	.	4b-/	wszy-	.	.
4r	4r	.	4f/	-stkich	.	.
=84	=84	=84	=84	=84	=84	=84
4E- 4EE-\	4g 4e- 4c/	.	(8g\L	czym	.	.
.	.	.	8ee-\J)	.	.	.
4r	4r	.	8.dd\	co	.	.
.	.	.	16cc\	mó-	.	.
4r	4r	.	2ff\	-wi-	.	.
4F 4FF/	4aa 4ff 4ee- 4cc\	f	.	.	.	.
=85	=85	=85	=85	=85	=85	=85
4F 4BB-/	4bb- 4ff 4dd\	.	4b-\	-ła.	.	.
4BB-/	4B-/	.	4r	.	.	.
2r	2r	.	2r	.	.	.
==	==	==	==	==	==	==
*-	*-	*-	*-	*-	*-	*-
!!!system-decoration: s1{(s2,s3)}
!!!RDF**kern: > = above
!!!RDF**kern: < = below
!!!RDF**kern: | = vertical stroke
!!!RDF**kern: N = linked
!!!RDF**kern: i = editorial accidental
!!!EED: Wojciech Jakubiak-Danek
!!!EEV: 2021-07-10
!!!ENC: Anastazja Marusiak
!!!END: 2021-07-05
